!!!ONB: MCCC : IWM0417_02 : Extracted Monophonic Melody
!!!COM: Mozart, Wolfgang Amadeus
!!!OPR: Piano Sonata No.17
!!!OMV: 2
!!!SCT: K.570
!!!ODT: 1789///
**kern
*thru
*staff1
*>A
*clefG2
*k[b-e-a-]
*E-:
*M4/4
*met(c)
*MM60
=1
4b-
8g
8f
8e-
8B-
8e-
8f
=2
8g
8a-
8b-
8cc
8.g
16a-
16f
16g
16a-
16a
=3
4bb-
8gg
8ff
8ee-
8ff
8gg
8aa-
=4
8bb-
32bb
32ccc
32aa-
32ff
8ee-
32gg
32ff
32ee
32ff
4ff
8ee-
8r
=5
*>A
*M4/4
4b-
8g
8f
8e-
8B-
8e-
8f
=6
8g
8a-
8b-
8cc
8.g
16a-
16f
16g
16a-
16a
=7
4bb-
8gg
8ff
8ee-
8ff
8gg
8aa-
=8
8bb-
32bb
32ccc
32aa-
32ff
8ee-
32gg
32ff
32ee
32ff
4ff
8ee-
8r
=9
*>B
4ff
8gg
8ee-
8.aa-
16ff
16dd
16ee-
16ff
16ff#
=10
8gg
8gg
8aa-
8aa
8.bb-
48ccc
48bb-
48aa-
16gg
16aa-
16bb-
16bb
=11
4ccc
4bb-
4aa
4aa-
=12
8gg
8eee-
8ff
8ccc
8.ee-
32ff
32ee-
8dd
8r
=13
4b-
8g
8f
8e-
8B-
8e-
8f
=14
8g
8a-
8b-
8cc
8.g
16a-
16f
16g
16a-
16a
=15
4bb-
8gg
8ff
8ee-
8ff
8gg
8aa-
=16
8bb-
32bb
32ccc
32aa-
32ff
8ee-
32gg
32ff
32ee
32ff
4ff
8ee-
8r
=17
*>B
4ff
8gg
8ee-
8.aa-
16ff
16dd
16ee-
16ff
16ff#
=18
8gg
8gg
8aa-
8aa
8.bb-
48ccc
48bb-
48aa-
16gg
16aa-
16bb-
16bb
=19
4ccc
4bb-
4aa
4aa-
=20
8gg
8eee-
8ff
8ccc
8.ee-
32ff
32ee-
8dd
8r
=21
4b-
8g
8f
8e-
8B-
8e-
8f
=22
8g
8a-
8b-
8cc
8.g
16a-
16f
16g
16a-
16a
=23
4bb-
8gg
8ff
8ee-
8ff
8gg
8aa-
=24
8bb-
32bb
32ccc
32aa-
32ff
8ee-
32gg
32ff
32ee
32ff
4ff
8ee-
8r
=25
*>C
8.gg
16ff
8ee-
8r
8.aa-
16gg
8ff
8r
=26
16r
16ee-
16ff
16gg
16gg
16ff
16ff
16ee-
4ee-
8dd
8r
=27
16r
16ee-
16cc
16a-
8g
8f#
16r
16bb-
16gg
16ee-
8dd
8cc#
=28
16r
16dd
16r
16b-
16r
16cc
16r
16a
16r
16g
16a
16b
16cc
16dd
16ee-
16ff
=29
*>C
8.gg
16ff
8ee-
8r
8.aa-
16gg
8ff
8r
=30
16r
16ee-
16ff
16gg
16gg
16ff
16ff
16ee-
4ee-
8dd
8r
=31
16r
16ee-
16cc
16a-
8g
8f#
16r
16bb-
16gg
16ee-
8dd
8cc#
=32
16r
16dd
16r
16b-
16r
16cc
16r
16a
16r
16g
16a
16b
16cc
16dd
16ee-
16ff
=33
*>D
4gg
4aa-
4bb-
8aa-
8r
=34
4ff
4gg
4aa-
8gg
8r
=35
16r
16ff#
16gg
16ff#
8ddd
8ff
16r
16ee
16ff
16ee
8ccc
8ee-
=36
16r
16dd-
16cc
16dd-
16ee
16ff
16gg
16aa-
4cc
16b
16dd
16ee-
16ff
=37
8.gg
16ff
8ee-
8r
8.aa-
16gg
8ff
8r
=38
16r
16ee-
16ff
16gg
16gg
16ff
16ff
16ee-
4ee-
8dd
8r
=39
16r
16gg
16ee-
16b
8dd
8cc
16r
16ccc
16aa-
16ee
8gg
8ff#
=40
*>D1
16r
16gg
16r
16ee-
16r
16ff
16r
16dd
16r
16b
16cc
16b
16cc
16dd
16ee-
16ff
=41
*>D
4gg
4aa-
4bb-
8aa-
8r
=42
4ff
4gg
4aa-
8gg
8r
=43
16r
16ff#
16gg
16ff#
8ddd
8ff
16r
16ee
16ff
16ee
8ccc
8ee-
=44
16r
16dd-
16cc
16dd-
16ee
16ff
16gg
16aa-
4cc
16b
16dd
16ee-
16ff
=45
8.gg
16ff
8ee-
8r
8.aa-
16gg
8ff
8r
=46
16r
16ee-
16ff
16gg
16gg
16ff
16ff
16ee-
4ee-
8dd
8r
=47
16r
16gg
16ee-
16b
8dd
8cc
16r
16ccc
16aa-
16ee
8gg
8ff#
=48
*>D2
16r
16gg
16r
16ee-
16r
16ff
16r
16dd
16r
16b
16cc
16b
[4cc
=49
*>E
16cc]
16dd-
16cc
16dd-
[4cc
16cc]
16ee
16ff
16aa-
[4cc-
=50
16cc-]
16a
16b-
16a
[4b-
16b-]
16cc#
16dd
16ee-
16ee
16ff
16ff#
16gg
=51
8.bb-
16aa
8aa-
8r
16r
16e
16f
16g
16a-
16g
16a-
16a
=52
4b-
8g
8f
8e-
8B-
8e-
8f
=53
8g
8a-
8b-
8cc
8.g
16a-
16f
16g
16a-
16a
=54
4bb-
8gg
8ff
8ee-
8ff
8gg
8aa-
=55
8bb-
32bb
32ccc
32aa-
32ff
8ee-
32gg
32ff
32ee
32ff
4ff
8ee-
8r
=56
*>F
4cc
16ee-
16dd-
16b-
16g
8.a-
32b-
32cc
8b-
8r
=57
4dd-
16ff
16ee-
16dd-
16cc
8.b-
32cc
32dd-
8cc
8r
=58
8.ccc
16ee
16ff
16gg
16aa-
16aa
8.bb-
16dd
16ee-
16ff
16ff#
16gg
=59
16gg
16cc
16aa-
16ff
16ff
16ee-
16ee-
16dd
16ee-
16dd
16ee-
16ff
16ee-
16dd
16dd-
16b-
=60
*>F
4cc
16ee-
16dd-
16b-
16g
8.a-
32b-
32cc
8b-
8r
=61
4dd-
16ff
16ee-
16dd-
16cc
8.b-
32cc
32dd-
8cc
8r
=62
8.ccc
16ee
16ff
16gg
16aa-
16aa
8.bb-
16dd
16ee-
16ff
16ff#
16gg
=63
16gg
16cc
16aa-
16ff
16ff
16ee-
16ee-
16dd
16ee-
16dd
16ee-
16ff
16ee-
16dd
16dd-
16b-
=64
*>G
4cc
16b
16cc
16dd-
16cc
8ff
8b-
16a
16b-
16cc
16b-
=65
8ee-
[8a-
16a-]
16b-
16cc
16dd-
4cc
8b-
8r
=66
4aa-
16gg
16ff
16ee-
16dd
4ddd-
16ccc
16bb-
16aa-
16gg
=67
16aa-
16cc
16b-
16ff
16ee-
16a-
16dd-
16g
4b-
16a-
16b-
16b
16cc
=68
*>G
4cc
16b
16cc
16dd-
16cc
8ff
8b-
16a
16b-
16cc
16b-
=69
8ee-
[8a-
16a-]
16b-
16cc
16dd-
4cc
8b-
8r
=70
4aa-
16gg
16ff
16ee-
16dd
4ddd-
16ccc
16bb-
16aa-
16gg
=71
16aa-
16cc
16b-
16ff
16ee-
16a-
16dd-
16g
4b-
16a-
16b-
16b
16cc
=72
*>H
16r
16cc
16dd-
16cc
16r
16cc
16ccc
16cc
16r
16b-
16cc-
16b-
16r
16b-
16bb-
16b-
=73
16r
16a
16b-
16a
16ee-
16a
16gg-
16a
[4b-
16b-]
16a
16gg-
16a
=74
4b-[
16b-]
16a
16gg-
16a
[4b-
16b-]
16dd
16ff
16aa-
=75
16bb
16ccc
16ddd
16ccc
16bb-
16aa-
16gg
16ff
8.ee-
32ff
32ee-
8dd
8r
=76
4b-
8g
8f
8e-
8B-
8e-
8f
=77
8g
8a-
8b-
8cc
8.g
16a-
16f
16g
16a-
16a
=78
4bb-
8gg
8ff
8ee-
8ff
8gg
8aa-
=79
8bb-
32bb
32ccc
32aa-
32ff
8ee-
32gg
32ff
32ee
32ff
4ff
8ee-
8r
=80
8.cc
16dd
8ee-
8ee-
8.ee-
32dd
32cc
8b-
8r
=81
8.cc
16dd
16ee-
16ee-
16ee-
16ee-
32ee-
32gg
32ff
32ee-
32dd
32ff
32ee-
32cc
8b-
8r
=82
16r
16gg
16aa-
16ccc
8ee
8ff
16r
16ff#
16gg
16bb-
8dd
8ee-
=83
16r
16ee
16ff
16aa-
16b
16cc
16ee-
16dd
4ff
8ee-
8r
=84
4ee-
16dd
16cc
16b-
16a
4aa-
16gg
16ff
16ee-
16dd
=85
16ee-
16g
16f
16cc
16b-
16e-
16a-
16d
4e-
16r
16aa-
16ff
16dd
=86
4bb-
16r
16aa-
16ff
16dd
4ee-
16r
16a-
16f
16d
=87
2f
8e-
8r
4r
==
*-
